build/img/icon-tree.svg

<svg width="24" height="24" viewBox="0 0 24 24" fill="none" xmlns="http://www.w3.org/2000/svg">
<path d="M12 16.9089V20.9995" stroke="#2C8ECC" stroke-width="1.5" stroke-miterlimit="10"/>
<path d="M7.89453 20.9995H16.1054" stroke="#2C8ECC" stroke-width="1.5" stroke-miterlimit="10"/>
<path d="M16.9265 10.3638H16.4709C16.7531 9.88076 16.9265 9.32664 16.9265 8.72753C16.9265 6.92018 15.4561 5.45508 13.6421 5.45508C13.6281 5.45508 13.6152 5.45902 13.6012 5.45917C13.4022 4.07131 12.2163 3.00073 10.7683 3.00073C9.18117 3.00073 7.89451 4.28273 7.89451 5.86413C7.89451 6.14182 7.94668 6.40492 8.0207 6.65883C6.97414 7.20596 6.25233 8.28632 6.25233 9.54565C6.25233 9.85664 6.30977 10.1515 6.3911 10.4365C4.90503 10.7498 3.78906 12.0623 3.78906 13.6362C3.78906 15.4435 5.25949 16.9087 7.07342 16.9087H16.9265C18.7404 16.9087 20.2109 15.4435 20.2109 13.6362C20.2109 11.8289 18.7404 10.3638 16.9265 10.3638Z" stroke="#2C8ECC" stroke-width="1.5" stroke-miterlimit="10" stroke-linecap="square"/>
</svg>

<svg width="24" height="24" fill="none" xmlns="http://www.w3.org/2000/svg"><path d="M12 16.909v4.09M7.895 21h8.21" stroke="#2C8ECC" stroke-width="1.5" stroke-miterlimit="10"/><path d="M16.927 10.364h-.456a3.23 3.23 0 00.456-1.636 3.278 3.278 0 00-3.285-3.273c-.014 0-.027.004-.04.004a2.869 2.869 0 00-5.707.405c0 .278.052.54.126.795-1.047.547-1.769 1.627-1.769 2.887 0 .31.058.606.14.89a3.275 3.275 0 00-2.603 3.2 3.278 3.278 0 003.284 3.273h9.854a3.279 3.279 0 003.284-3.273 3.278 3.278 0 00-3.284-3.272z" stroke="#2C8ECC" stroke-width="1.5" stroke-miterlimit="10" stroke-linecap="square"/></svg>
